shader_type spatial;

uniform vec3 color : source_color;
uniform vec3 color2 : source_color;
uniform sampler2D noise;
uniform float noiseScale = 20.0;

varying vec3 worldPos;
void vertex() {
	// Called for every vertex the material is visible on.
}

void fragment() {
	// Called for every pixel the material is visible on.
}

//void light() {
	// Called for every pixel for every light affecting the material.
	// Uncomment to replace the default light processing function with this one.
//}
